X:1
T:Title
%%score ( 1 2 ) ( 3 4 )
L:1/8
Q:1/4=90
M:3/4
K:Db
V:1 treble nm="Strings 1, Treble"
V:2 treble 
V:3 bass nm="Strings 1, Bass"
V:4 bass 
V:1
 z2 z2 [DF]>[EG] | [FA]3 [FA] (3[GB][FA][_F=G] | [FA]2 [DF]2 D>[DF] | %3
w: 1.~I'm~ re|deemed,~ I~ will~ * pro|claim~ it,~ I'm~ re|
 [CE]3 [CE] (3[CE][_C=D][=CE] | [DF]4 D>[DF] | [FA]3 [FA] (3[GB][FA][_F=G] | %6
w: deemed~ by~ blood~ * di|vine;~ Now~ He~|seals~ me~ with~ * His~|
 [FA]2 [Fd]2 [Fd]>[Fd] | [Ec]3 [Ec] (3[G-c][GB][Gc] |[M:4/4] [Fd]4 [DF][EG] [FA]2 | z4 z2 d2- | %10
w: Spir it,~ I~ am~|His~ and~ He~ * is~|mine.~ * * *||
 d4 z4 | [GB][GB][Ad][Ad] [Gc][Fd] [Ae]2- | [Ae]4 [Af][Ge] [Fd]2 | z4 z2 A2- | A4 z4 | z4 z2 d2- | %16
w: ||||||
 d4 z4 |] %17
w: |
V:2
 x6 | x6 | x6 | x6 | x6 | x6 | x6 | x6 |[M:4/4] x8 | [FA][FA] [FA]2 [GB][Gc] F2 | %10
 GG F2 [FA][FA] [GB]2 | x8 | x8 | [Ac][GB] [FA]2 [DF][EG] F2 | FF F2 [FA][FA] [GB]2 | %15
 [Gd][Gd] [Gc]2 [Gc][Gc]F_F | GG F2 z4 |] %17
V:3
 z2 z2 [D,A,]>[D,A,] | [D,D]3 [D,D] (3:2:2[D,D]2 [D,D] | [D,D]2 [D,A,]2 [D,F,]>[D,A,] | %3
 [A,,A,]3 [A,,A,] (3:2:2[A,,A,]2 [A,,A,] | [D,A,]4 [D,F,]>[D,A,] | %5
 [D,D]3 [D,D] (3:2:2[D,D]2 [D,D] | [D,D]2 [D,A,]2 [D,A,]>[D,A,] | %7
 [A,,A,]3 [A,,A,] (3:2:2[A,,A,]2 [A,,A,] |[M:4/4] [D,A,]4 [D,A,][D,A,] [D,D]2 | %9
 [D,D][D,D] [D,D]2 [D,A,][D,A,] A,2 | B,B, A,2 [D,D][D,D] [G,D]2 | %11
 [G,D][G,D][F,A,][F,A,] [E,A,][D,D] [A,C]2- | [A,C]4 [D,D][D,A,] [D,A,]2 | %13
 [D,A,][D,A,] [D,D]2 [D,A,][D,A,] D2- | [F,D-][A,D-] [D,D]2 [D,D][D,D] [G,D]2 | %15
 [G,B,][G,B,] A,2 [A,,A,][A,,A,]A,=G, | B,B, A,2 z4 |] %17
V:4
 x6 | x6 | x6 | x6 | x6 | x6 | x6 | x6 |[M:4/4] x8 | z4 z2 D,2- | D,4 z4 | x8 | x8 | z4 z2 D,2 | %14
 x8 | z4 z2 D,2- | D,4 z4 |] %17

